!!!COM: Saint-Saens, Camille
!!!CNT: Francais
!!!TXO: Francais
!!!OTL: Pourquoi Rester Seulette?
!!!LYR: J.L. Croze
!!!ENC: Jacob Pegg
!!!YOR: Huit melodies : for high voice
!!!YOR: Huntsville, TX: Recital Publications, 1982 
!!!ODT: 1894/
!!NB: Vocal melody and text only encoded.
!!NB: First instance of melodic material only encoded.
**kern	**silbe
*clef G2	*
*k[]	*
*M2/4	*
!!created: 3/1/04 10:31 AM
!!proofed and posted: 3/1/04 1:51 PM
!!edit time: 45 min.
=1	=1
2r	.
=2	=2
4r	.
16r	.
{16e	{Pour-
16ee	-quoi
16dd	res-
=3	=3
16cc	-ter
16b	seu-
[8a	-lette
16a]	|
16cc	A
16b	gar-
16a	-der
=4	=4
16g#	ses
16b	mou-
8e}	-tons?}
16r	.
{16a	{Que
16b	peut
16cc	u-
=5	=5
16dd	-ne
16a	fil-
8dd	-let-
16dd}	-te,}
{16b	{Qui
16cc	n'a
16dd	que
=6	=6
16ee	sa
16b	hou-
[8ee	-let-
16ee]	|
16dd	|
16cc	|
16b	|
=7	=7
16a	|
16cc	|
16b	|
16a	|
8g#}	-te}
{8a	{Con-
=8	=8
16a	-tre
16cc	les
4cc	loups
8b	glou-
=9	=9
4a}	-tons!}
4r	.
=10	=10
4r	.
16r	.
{16d	{A-
16dd	-vec
16cc	moi
=11	=11
16b	dans
16a	la
8g	plai-
16g	-ne
16a	Vient
16f	pour
16g	me
=12	=12
16e	pro-
16g	-te/-
8cc}	-ger,}
8r	.
{[8cc	{Pier-
=13	=13
8cc]	|
16b	-re,
16cc	le
8dd	beau
8a	ber-
=14	=14
8b}	-ger...}
8r	.
{[4cc	{Fi-
=15	=15
4cc]	|
8cc}	-le,}
8r	.
=16	=16
16r	.
{16cc	{fu-
16a	-seau
16cc	le/-
[4dd	-ger,
=17	=17
2dd]}	|}
=18	=18
16r	.
{16dd	{|
16g	|
16dd	|
32ee	|
32ff	|
32gg	|
32ff	|
32ee	|
32dd	|
32cc	|
32dd	|
=19	=19
32ee	|
32ff	|
32gg	|
32ff	|
32ee	|
32dd	|
32cc	|
32dd	|
32ee	|
32ff	|
32gg	|
32ff	|
32ee	|
32dd	|
32cc	|
32dd	|
=20	=20
32ee	|
32ff	|
32gg	|
32ff	|
32ee	|
32dd	|
32cc	|
32b	|
16a}	|}
16r	.
{8b	{En-
=21	=21
16a	-tre
16g	mes
16cc	doigts
16ee	la
[4ddT	lai-
=22	=22
(2ddT]	|
ccq	|
ddq)	|
=23	=23
4cc}	-ne.}
4r	.
=24	=24
4r	.
{8gg	{Pierre
8b	est
=25	=25
4cc}	fort,}
4r	.
=26	=26
4r	.
{8ee	{Pierre
8g	est
=27	=27
4a}	doux;}
{8a	{Sa
8dd	pa-
=28	=28
8dd	-ro-
16cc	-le
16b	ca-
4cc	-res-
=29	=29
4b}	-se,}
{8b	{Il
8cc#	m'a
=30	=30
8cc#	dit
8dd#	|
8dd#	a\
8cc#	ge-
=31	=31
8cc#	-noux:
16b}	|}
16r	.
{8g#	{<<Ma-
8a	-de-
=32	=32
8a	-leine,
8b	|
8b	ai-
8a	-mons~
=33	=33
8a	~nous>>
16g#}	|}
16r	.
{8b	{Et
[8ee	Pierre
=34	=34
16ee]	|
16cc#	a
16b	ma
16g#	ten-
4f#	-dres-
=35	=35
8e}	-se.}
8r	.
4r	.
!!mm. 36-44 repeat melodic material
!!ends on syllable '-le/,' continued into next phrase
=45	=45
{(2aa	{-le/...
=46	=46
32ff	|
32gg	|
32aa	|
32gg	|
32ff	|
32ee	|
32dd	|
32cc#	|
32dd	|
32ee	|
32ff	|
32ee	|
32dd	|
32ccn	|
32b	|
32a	|
=47	=47
32b	|
32cc	|
32dd	|
32cc	|
32b	|
32a	|
32g#	|
32f#	|
16g#)}	|}
16r	.
{8ee	{Fi-
=48	=48
16dd	-le,
16cc	fu-
16b	-seau
16cc	le/-
16a}	-ger!}
16r	.
{8cc	{Pier-
=49	=49
16b	-re,
16a	le
16g#	beau
16a	ber-
[4f	-ger,
=50	=50
8f]}	|}
8r	.
16r	.
{16f	{M'est
16ee	in-
16dd	-fi-
=51	=51
(4cc	-de\-
4b)	|
=52	=52
4a}	-le!}
4r	.
=53	=53
16r	.
{(16e	{|
16ee	|
16dd	|
16cc	|
16b	|
[8a)	|
=54	=54
8a]	|
(8ee	|
[4aa)	|
=55	=55
2aa]}	|}
*-	*-
